!!!SOCIAL_FUNCTION:	songs used in the treatment of the sick
!!!PDT:	1929
!!!OTL: No_48_Sandy_Loam_Fields.krn
!!!REG: Southwest
!!!LANG: Non-Tone
!!!LING_GROUP: Uto-Aztecan
**kern
*staff1
=1-
*clefF4
*k[f#c#g#d#a#]
*M2/4
4G#\
8F#\L
8G#\J
=2
8G#\L
8F#\J
4C#/
=3||
*M3/4
8G#\L
8G#\J
4F#\
8D#/L
8BB/J
=4||
*M2/4
4C#/
4C#/
=5
4G#\
8F#\L
8G#\J
=6
8G#\L
8F#\J
4D#\
=7||
*M3/4
8G#\L
8F#\J
8.C#/L
16BB/Jk
8C#/L
8D#/J
=8
4C#/
4BB/
4GG#;/
=9||
*M2/4
4D#\
8BB/L
16C#/L
16D#/JJ
=10||
*M5/8
4C#/
8BB/L
8GG#/
8GG#/J
=11||
*M3/4
4C#/
8BB/L
8GG#/J
8BB/L
8GG#/J
=12
4BB/
2BB/
==
*-
